icons/windi.svg

<svg width="16" height="16" viewBox="0 0 16 16" fill="none" xmlns="http://www.w3.org/2000/svg">
<path fill-rule="evenodd" clip-rule="evenodd" d="M6.6597 2C7.82308 2 8.76946 2.94637 8.76946 4.10976C8.76946 5.27313 7.83108 6.2195 6.2824 6.2195H3V5.01393H6.2824C7.2 5.01393 7.56388 4.60826 7.56388 4.10976C7.56388 3.61125 7.1582 3.20557 6.6597 3.20557C6.1401 3.20557 5.90622 3.5582 5.90622 3.80835H4.70065C4.70065 2.91925 5.43364 2 6.6597 2ZM9.33425 14C10.4976 14 11.444 13.0537 11.444 11.8902C11.444 10.7269 10.5056 9.7805 8.95695 9.7805H5.31455V10.9861H8.95695C9.78 10.9861 10.2384 11.3917 10.2384 11.8902C10.2384 12.3888 9.83276 12.7945 9.33425 12.7945C8.81465 12.7945 8.58077 12.4418 8.58077 12.1916H7.37519C7.37519 13.0808 8.10819 14 9.33425 14ZM11.76 3.86C10.4303 3.86 9.49224 4.87123 9.49224 6.20097H10.56C10.56 5.54 11.04 5.06 11.76 5.06C12.48 5.06 12.84 5.54 12.84 6.20097C12.84 6.86194 12.3724 7.40654 11.1 7.40654H3V8.61212H11.28C13.1644 8.61212 14.04 7.40097 14.04 6.20097C14.04 4.87123 13.14 3.86 11.76 3.86ZM3 9.7805H4.58041V10.9962H3V9.7805Z" fill="#4CB7F0"/>
</svg>

<svg xmlns="http://www.w3.org/2000/svg" width="16" height="16" fill="none"><path fill="#4CB7F0" fill-rule="evenodd" d="M6.66 2c1.163 0 2.11.946 2.11 2.11 0 1.163-.939 2.11-2.488 2.11H3V5.014h3.282c.918 0 1.282-.406 1.282-.904a.905.905 0 0 0-.904-.904c-.52 0-.754.352-.754.602H4.701C4.7 2.92 5.434 2 6.66 2Zm2.674 12c1.164 0 2.11-.946 2.11-2.11 0-1.163-.938-2.11-2.487-2.11H5.315v1.206h3.642c.823 0 1.281.406 1.281.904a.905.905 0 0 1-.904.904c-.52 0-.753-.352-.753-.602H7.375c0 .889.733 1.808 1.96 1.808ZM11.76 3.86c-1.33 0-2.268 1.011-2.268 2.341h1.068c0-.661.48-1.141 1.2-1.141s1.08.48 1.08 1.141c0 .66-.468 1.206-1.74 1.206H3v1.205h8.28c1.884 0 2.76-1.211 2.76-2.411 0-1.33-.9-2.341-2.28-2.341ZM3 9.78h1.58v1.216H3V9.78Z" clip-rule="evenodd"/></svg>
